X:6
T:O'Donnell Abu
Z: id:dc-miscellaneous-3
M:2/4
L:1/8
K:D Major
FE|D2 FG|A2 FA|f2 dB|A2 GF|!
[1 E2 E>F|G2 FE|D2 FG|A2:|!
[2 E2 e>d|cA Bc|d2 d>d|d2|]!
B/c/d/e/|f2 fe|dB A2|d2 dB|AF DF|!
G2 BG|F2 AF|E2 E>F|EG FE|!
D2 FG|A2 FA|f2 dB|A2 GF|!
E2 e>d|cA Bc|d2 d>d|d2:|!

